!! Isochronous pitch passage.
!! Solo-line.
!! From C.J. Andersen, Eighteen Studies for Flute Opus 41, No. 7;
!! Flute
!! 9/16 meter
**kern	**metpos
*M9/16	*M9/16
*tb16	*tb16
=1	=1
16a	1
16cc#	3
16b	3
16a	2
16cc#	3
16dd	3
16ee	2
16cc#	3
16aa	3
=2	=2
16a	1
16dd	3
16b	3
16a	2
16dd	3
16ee	3
16ff#	2
16dd	3
16aa	3
=3	=3
16a	1
16ee	3
16cc#	3
16a	2
16aa	3
16bb	3
16ccc#	2
16ddd	3
16ddd#	3
=4	=4
16eee	1
16ccc#	3
16dddn	3
16eee	2
16fff#	3
16ggg#	3
16aaa	2
16ggg#	3
16fff#	3
=5	=5
16eee	1
16ddd	3
16aa#	3
16ccc#	2
16bb	3
16aan	3
16gg#	2
16ff#	3
16ee	3
=6	=6
16ff#	1
16ee	3
16b#	3
16cc#	2
16dd	3
16dd#	3
16ee	2
16aa	3
16ccc#	3
=7	=7
16bb	1
16aa	3
16ee#	3
16gg#	2
16ff#	3
16cc#	3
16een	2
16dd#	3
16b	3
=8	=8
16ff#	1
16ee	3
16a#	3
16cc#	2
16b	3
16an	3
16g#	2
16f#	3
16e	3
=9	=9
16a	1
16cc#	3
16b	3
16a	2
16cc#	3
16dd	3
16ee	2
16cc#	3
16aa	3
=10	=10
16a	1
16dd	3
16b	3
16a	2
16dd	3
16ee	3
16ff#	2
16dd	3
16aa	3
=11	=11
16a	1
16ee	3
16cc#	3
16a	2
16aa	3
16bb	3
16ccc#	2
16ddd	3
16ddd#	3
=12	=12
16eee	1
16ccc#	3
16dddn	3
16eee	2
16fff#	3
16ggg#	3
16aaa	2
16ggg#	3
16fff#	3
=13	=13
16eee	1
16ddd#	3
16aa#	3
16ccc#	2
16bb	3
16aan	3
16ff#	2
16dd#	3
16b	3
=14	=14
16fff#	1
16eee	3
16aa#	3
16ccc#	2
16bb	3
16gg#	3
16ee	2
16b	3
16g#	3
=15	=15
16b	1
16aa#	3
16bb	3
16cc#	2
16gg##	3
16aa#	3
16dd#	2
16gg#	3
16aan	3
=16	=16
16ee	1
16ff##	3
16gg#	3
16ccc#	2
16bb	3
16gg#	3
16ee	2
16b	3
16g#	3
=17	=17
16a	1
16ggn	3
16dd#	3
16ee	2
16cc#	3
16ddn	3
16ee	2
16cc#	3
16bb	3
=18	=18
16a	1
16aa	3
16ee#	3
16ff#	2
16dd	3
16een	3
16ff#	2
16dd	3
16bb	3
=19	=19
16a	1
16ggn	3
16bb	3
16a	2
16gg	3
16ccc#	3
16a	2
16gg	3
16bb	3
=20	=20
16dd	1
16bb	3
16gg#	3
16aa	2
16ff#	3
16dd	3
16a	2
16f#	3
16d	3
=21	=21
16b	1
16aa	3
16ee#	3
16ff#	2
16dd#	3
16een	3
16ff#	2
16dd#	3
16ccc#	3
=22	=22
16b	1
16bb	3
16ff##	3
16gg#	2
16ee	3
16ff#	3
16gg#	2
16ee	3
16ccc#	3
=23	=23
16b	1
16aa	3
16ccc#	3
16b	2
16aa	3
16ddd#	3
16b	2
16aa	3
16ccc#	3
=24	=24
16ee	1
16ccc#	3
16aa#	3
16bb	2
16gg#	3
16ee	3
16b	2
16g#	3
16e	3
=25	=25
*-	*-
